!!!COM: Music21
!!!OTL: Volta da Festa de Caroi
!!!OMV: pezas_foliadas_volta-da-festa-de-caroi_volta-da-festa-de-caroi-partitura.musicxml
**kern
*I"Bagpipes
*I'Bag
*clefG^2
*k[]
*M3/4
=1
!LO:TX:a:t=Allegro
*MM180
!LO:TX:a:t=[quarter]=180
4r
8ggL
8aaJ
8ggL
8ffJ
=||
8eeL
8ffJ
8eeL
8ddJ
8ccL
8ddJ
=
4ee
8ggL
8aaJ
8ggL
8ffJ
=
8eeL
8ffJ
8eeL
8ddJ
8ccL
8eeJ
=
4dd
8ffL
8ggJ
8ffL
8eeJ
=
8ddL
8eeJ
8ddL
8ccJ
8bL
8ccJ
=
4dd
8ffL
8ggJ
8ffL
8eeJ
!!linebreak:original
=
8ddL
8eeJ
8ddL
8ccJ
8bL
8ddJ
!!linebreak:original
=
4cc
8ggL
8aaJ
8ggL
8ffJ
=
8eeL
8ffJ
8eeL
8ddJ
8ccL
8ddJ
=
8eeL
8ccJ
8ggL
8aaJ
8ggL
8ffJ
=
8eeL
8ffJ
8eeL
8ddJ
8ccL
8eeJ
=
8ddL
8bJ
8ffL
8ggJ
8ffL
8eeJ
=
8ddL
8eeJ
8ddL
8ccJ
8bL
8ccJ
=
8ddL
8bJ
8ffL
8ggJ
8ffL
8eeJ
!!linebreak:original
=
8ddL
8eeJ
8ddL
8ccJ
8bL
8ddJ
=
4cc
8bL
8ddJ
4cc
=
[2.cc
=
2.cc_
=||
*k[b-e-a-]
*E-:
2cc]
4gg
=||
2gg
4cc
=
4cc
4gg
4gg
=
4gg
[2ff
=
2ff]
4ff
=
4bb-
4aa-
4gg
=
4ff
4een
4ff
=
4aa-
[2gg
!!linebreak:original
=
2.gg_
!!linebreak:original
=
2.gg_
=
2gg]
4gg
=||
2gg
4cc
=
4cc
4gg
4gg
=
4gg
[2ff
=
2ff]
4ff
=
4bb-
4aa-
4gg
=
4ff
4een
4ff
=
4aa-
[2gg
=
2gg]
4gg
=||
2ccc
4bb-
=
4aa-
4ccc
4ccc
=
2bb-
4gg
=
2ee-
4ee-
!!linebreak:original
=
2aa-
4gg
=
4ff
4gg
4ee-
=
4dd
[2cc
=
2cc]
4gg
=||
2ccc
4bb-
=
4aa-
4ccc
4ccc
=
2bb-
4gg
=
2ee-
4ee-
=
2aa-
4gg
=
4ff
4gg
4ee-
=
4dd
[2cc
=
2cc]
4gg
=||
4gg
4gg
4een
!!linebreak:original
=
2cc
4gg
!!linebreak:original
=
4gg
4aa-
4gg
=
2ff
4bb-
=
4aan
4bb-
4gg
=
4ee-
4gg
4gg
=
4ff
4gg
4ee-
=
2cc
4gg
=||
4gg
4gg
4een
=
2cc
4gg
!!linebreak:original
=
4gg
4aa-
4gg
=
2ff
4bb-
=
4aan
4bb-
4gg
=
4ee-
4gg
4gg
=
4ff
4ee-
4dd-X
=||
*k[]
*C:
[2.cc
=
4cc]
8ggL
8aaJ
8ggL
8ffJ
=||
*k[b-e-a-]
*E-:
4ff
4ee-
4dd-X
=
[2.cc
!!linebreak:original
=
4cc]
2r
==
*-
